images/Kevin-Luo.svg

<svg width="241" height="93" viewBox="0 0 241 93" fill="none" xmlns="http://www.w3.org/2000/svg">
<path d="M69.2188 23.5312C69.0521 23.2396 69.8438 22.2188 71.5938 20.4688C73.3646 18.6979 74.25 17.3958 74.25 16.5625C74.25 15.9583 74.1458 15.5938 73.9375 15.4688C73.7292 15.3229 73.1354 15.25 72.1562 15.25C70.7396 15.25 68.7604 15.6667 66.2188 16.5C64.1146 17.1667 60.6562 18.6562 55.8438 20.9688C51.0312 23.2812 46.9167 25.4271 43.5 27.4062C39.6458 29.6354 34.7188 32.8229 28.7188 36.9688C22.7188 41.1146 19.0104 43.8958 17.5938 45.3125C17.0729 45.8333 16.0312 48.0521 14.4688 51.9688C14.0521 53.0312 13.7604 53.7604 13.5938 54.1562C13.4271 54.5521 13.2396 55.1042 13.0312 55.8125C12.8229 56.5 12.6875 56.9375 12.625 57.125C12.5833 57.2917 12.5833 57.6146 12.625 58.0938C12.6667 58.5521 12.7188 58.8333 12.7812 58.9375C12.8646 59.0417 13.0625 59.3021 13.375 59.7188C13.6875 60.1354 13.9479 60.4375 14.1562 60.625C14.3646 60.7917 14.75 61.1354 15.3125 61.6562C18.7917 64.8646 23.0104 66.6458 27.9688 67C32.9479 67.3542 38.9375 66.3125 45.9375 63.875C49.125 62.75 51.1979 62.1042 52.1562 61.9375C52.7604 61.8125 53.125 61.8021 53.25 61.9062C53.3958 61.9896 53.4271 62.2708 53.3438 62.75C53.2812 63.1875 53 63.5833 52.5 63.9375C52.0208 64.2708 51.0938 64.7083 49.7188 65.25C41.8854 68.3542 34.8333 69.7396 28.5625 69.4062C22.3125 69.0521 17.2292 66.9896 13.3125 63.2188L10.875 60.9062L9.59375 64.125C6.73958 71.2083 4.71875 77.1458 3.53125 81.9375C2.34375 86.7292 2.26042 89.3229 3.28125 89.7188C3.48958 89.7812 3.66667 89.9271 3.8125 90.1562C3.95833 90.3854 4.03125 90.625 4.03125 90.875C4.03125 91.2917 3.79167 91.5729 3.3125 91.7188C2.85417 91.8854 2.34375 91.8854 1.78125 91.7188C1.23958 91.5729 0.864583 91.2917 0.65625 90.875C0.239583 90.0833 0.09375 88.7188 0.21875 86.7812C0.34375 84.8438 0.71875 82.7083 1.34375 80.375C1.94792 78.0833 2.96875 74.8854 4.40625 70.7812C5.86458 66.6562 7.05208 63.5625 7.96875 61.5C8.63542 59.8542 8.95833 58.0417 8.9375 56.0625C8.875 54.3333 9.125 52.7917 9.6875 51.4375C10.2708 50.0833 11.3333 48.4688 12.875 46.5938C13.4375 45.9062 14.0625 44.9479 14.75 43.7188C15.4375 42.4896 16.0104 41.2708 16.4688 40.0625C17.5104 37.4167 19.4792 31.7708 22.375 23.125C25.2917 14.4792 27.1667 8.70833 28 5.8125C28.6875 3.4375 29.2396 1.90625 29.6562 1.21875C30.0729 0.53125 30.5521 0.354167 31.0938 0.6875C31.6146 1.02083 31.5208 2.46875 30.8125 5.03125C30.125 7.57292 28.1354 13.7708 24.8438 23.625C23.2812 28.2917 21.9688 32.2708 20.9062 35.5625C19.8438 38.8333 19.3333 40.4688 19.375 40.4688C19.4583 40.4688 20.6771 39.6042 23.0312 37.875C30.0938 32.6875 37.7812 27.7917 46.0938 23.1875C54.4062 18.5625 61.1354 15.4479 66.2812 13.8438C68.2188 13.2396 69.9688 12.9167 71.5312 12.875C73.0938 12.8125 74.3021 13.0104 75.1562 13.4688C76.0312 13.9271 76.6146 14.5521 76.9062 15.3438C77.1979 16.1354 77.0729 17.1146 76.5312 18.2812C75.9896 19.4271 75.0625 20.6458 73.75 21.9375C72.7708 22.8958 71.8542 23.5312 71 23.8438C70.1458 24.1354 69.5521 24.0312 69.2188 23.5312ZM71.185 56.8438C71.3933 57.3646 71.1954 57.9167 70.5913 58.5C70.0079 59.0833 68.3725 60.3229 65.685 62.2188C62.6433 64.3854 60.3204 65.7604 58.7163 66.3438C57.1121 66.9271 55.6225 66.9375 54.2475 66.375C52.9975 65.875 52.3413 64.6875 52.2788 62.8125C52.2163 60.9167 52.7579 58.7604 53.9038 56.3438C54.6329 54.8021 55.3621 53.5625 56.0913 52.625C56.8413 51.6667 57.7267 51.0208 58.7475 50.6875C59.81 50.3542 60.6642 50.5417 61.31 51.25C61.9767 51.9375 62.2163 52.75 62.0288 53.6875C61.8413 54.6875 61.1433 55.8438 59.935 57.1562C58.7267 58.4479 57.685 59.0938 56.81 59.0938C56.1225 59.0938 55.6746 59.2083 55.4663 59.4375C55.2579 59.6458 55.0496 60.2604 54.8413 61.2812C54.6538 62.2604 54.7683 63.0625 55.185 63.6875C55.5183 64.1042 55.8204 64.3333 56.0913 64.375C56.3621 64.3958 56.935 64.2812 57.81 64.0312C58.9975 63.6979 61.2996 62.2917 64.7163 59.8125C66.0288 58.8542 67.06 58.125 67.81 57.625C68.56 57.1042 69.185 56.7396 69.685 56.5312C70.185 56.3021 70.5288 56.2292 70.7163 56.3125C70.9038 56.375 71.06 56.5521 71.185 56.8438ZM57.7788 54.5C57.0288 55.5833 56.7996 56.1979 57.0913 56.3438C57.2996 56.4062 57.6642 56.1979 58.185 55.7188C58.9767 54.9688 59.3725 54.375 59.3725 53.9375C59.3725 53.375 59.185 53.1875 58.81 53.375C58.4975 53.5208 58.1538 53.8958 57.7788 54.5ZM87.4638 53.4375C88.4221 53.0833 89.1304 53.0208 89.5888 53.25C90.0679 53.4583 90.1721 53.8958 89.9013 54.5625C89.6096 55.3333 88.5992 55.875 86.87 56.1875C85.1617 56.5 84.0054 56.3542 83.4013 55.75C83.1304 55.4792 82.9221 55.375 82.7763 55.4375C82.4429 55.5625 81.5158 56.5938 79.995 58.5312C79.5992 59.0521 78.7971 60.0938 77.5888 61.6562C75.8179 64.0104 74.5679 65.5417 73.8388 66.25C73.1304 66.9375 72.4533 67.3125 71.8075 67.375C71.2033 67.4375 70.7763 67.4062 70.5263 67.2812C70.2763 67.1354 70.0679 66.8438 69.9013 66.4062C69.4221 64.9688 69.6096 62.1875 70.4638 58.0625C71.0471 55.0833 71.7554 53.5625 72.5888 53.5C72.7971 53.5 72.995 53.5938 73.1825 53.7812C73.3908 54.0104 73.4638 54.4583 73.4013 55.125C73.3596 55.7708 73.1929 56.875 72.9013 58.4375C72.7554 59.1667 72.6304 59.7812 72.5263 60.2812C72.4429 60.7812 72.37 61.2604 72.3075 61.7188C72.245 62.1562 72.2033 62.5104 72.1825 62.7812C72.1617 63.0312 72.1721 63.25 72.2138 63.4375C72.2554 63.6042 72.3075 63.6979 72.37 63.7188C72.4533 63.7396 72.5783 63.7083 72.745 63.625C72.9117 63.5208 73.0888 63.375 73.2763 63.1875C73.4638 62.9792 73.7033 62.6979 73.995 62.3438C74.3075 61.9688 74.62 61.5833 74.9325 61.1875C75.2658 60.7708 75.6617 60.25 76.12 59.625C77.1408 58.25 79.1096 55.6146 82.0263 51.7188L84.9325 47.8438C85.2658 47.4062 85.495 47.1771 85.62 47.1562C85.7658 47.1146 86.0158 47.2604 86.37 47.5938C86.7242 47.9479 86.8804 48.2917 86.8388 48.625C86.8179 48.9583 86.5679 49.7083 86.0888 50.875C85.4013 52.5417 85.1617 53.4896 85.37 53.7188C85.62 53.9688 86.3179 53.875 87.4638 53.4375ZM114.618 56.3125C115.18 56.25 115.576 56.4583 115.805 56.9375C116.034 57.4167 115.888 57.9688 115.368 58.5938C114.951 59.0521 114.493 59.5417 113.993 60.0625C113.493 60.5625 112.649 61.3333 111.461 62.375C110.274 63.4167 109.086 64.3542 107.899 65.1875C106.711 66 105.305 66.7917 103.68 67.5625C102.055 68.3333 100.482 68.8646 98.9613 69.1562C96.7529 69.5729 94.7946 69.2396 93.0863 68.1562C91.3779 67.0521 90.4196 65.5104 90.2113 63.5312C90.0029 61.4479 90.1279 59.2708 90.5863 57C90.9821 55.0833 91.4717 53.6979 92.055 52.8438C92.6383 51.9896 93.2529 51.7708 93.8988 52.1875C94.1904 52.3542 94.3363 52.75 94.3363 53.375C94.3363 53.9792 94.2008 54.3646 93.93 54.5312C93.6383 54.7188 93.305 56.0729 92.93 58.5938C92.68 60.1979 92.555 61.3333 92.555 62C92.5758 62.6458 92.7425 63.3438 93.055 64.0938C93.6383 65.5104 94.7738 66.3021 96.4613 66.4688C98.1696 66.6146 99.9508 66.3125 101.805 65.5625C103.68 64.8125 105.399 63.8333 106.961 62.625C107.94 61.8542 109.034 60.9271 110.243 59.8438C111.472 58.7396 112.43 57.8854 113.118 57.2812C113.826 56.6771 114.326 56.3542 114.618 56.3125ZM95.5863 48.375C95.3571 48.6042 95.0654 48.7188 94.7113 48.7188C94.3571 48.7188 94.055 48.6042 93.805 48.375C93.5758 48.125 93.4613 47.8229 93.4613 47.4688C93.4613 47.1146 93.5758 46.8229 93.805 46.5938C94.055 46.3438 94.3571 46.2188 94.7113 46.2188C95.0654 46.2188 95.3571 46.3438 95.5863 46.5938C95.8363 46.8229 95.9613 47.1146 95.9613 47.4688C95.9613 47.8229 95.8363 48.125 95.5863 48.375ZM140.177 56.9375C140.469 56.8125 140.75 56.8542 141.021 57.0625C141.313 57.2708 141.469 57.5833 141.49 58C141.532 58.3958 141.365 58.8646 140.99 59.4062C140.427 60.1562 139.344 61.1875 137.74 62.5C136.157 63.8125 135.084 64.5938 134.521 64.8438C132.313 65.7604 130.365 65.8021 128.677 64.9688C127.907 64.5938 127.24 63.8854 126.677 62.8438C126.136 61.8021 125.75 60.8646 125.521 60.0312C125.292 59.1771 125.157 58.75 125.115 58.75C124.761 58.75 124.146 59.2083 123.271 60.125C122.396 61.0417 121.605 62.0521 120.896 63.1562C119 66.1562 117.48 67.7604 116.334 67.9688C115.771 68.0729 115.375 67.8021 115.146 67.1562C115 66.8021 115.198 64.875 115.74 61.375C116.282 57.875 116.823 55.0104 117.365 52.7812C117.615 51.8438 117.969 51.1875 118.427 50.8125C118.886 50.4375 119.323 50.4479 119.74 50.8438C120.032 51.1354 119.865 53.0312 119.24 56.5312C118.594 60.0729 118.271 61.9167 118.271 62.0625C118.271 62.1458 118.459 61.9583 118.834 61.5C119.084 61.2083 119.375 60.8333 119.709 60.375C120.625 59.125 121.73 58.0521 123.021 57.1562C124.334 56.2396 125.355 55.8333 126.084 55.9375C126.542 56 126.886 56.2083 127.115 56.5625C127.344 56.9167 127.594 57.6458 127.865 58.75C128.573 61.5833 129.875 63 131.771 63C132.521 63 133.375 62.6979 134.334 62.0938C135.292 61.4896 136.136 60.8333 136.865 60.125C137.594 59.3958 138.282 58.6979 138.927 58.0312C139.594 57.3646 140.011 57 140.177 56.9375ZM207.829 71.3125C207.579 71.4167 206.485 71.5625 204.548 71.75C202.631 71.9167 199.891 72.3333 196.329 73C192.766 73.6458 189.058 74.5729 185.204 75.7812C180.558 77.2396 176.308 79.1354 172.454 81.4688C168.62 83.8229 165.339 86.4792 162.61 89.4375C161.214 90.9792 160.298 91.8958 159.86 92.1875C159.443 92.5 159.016 92.5104 158.579 92.2188C158.287 92.0312 158.131 91.8229 158.11 91.5938C158.11 91.3646 158.214 90.9792 158.423 90.4375C159.235 88.4167 160.975 84.3333 163.641 78.1875C169.475 64.5208 173.391 55.0833 175.391 49.875C177.412 44.6667 179.412 38.75 181.391 32.125C183.016 26.6667 183.777 23.8333 183.673 23.625C183.631 23.5208 183.443 23.7188 183.11 24.2188C183.089 24.2396 183.068 24.2604 183.048 24.2812C182.61 24.9062 182.131 25.1667 181.61 25.0625C181.11 24.9583 180.86 24.5417 180.86 23.8125C180.86 23.5417 181.068 22.9792 181.485 22.125C181.923 21.25 182.443 20.3438 183.048 19.4062C184.527 16.9479 185.589 14.8542 186.235 13.125C186.964 11.2708 187.61 10.3438 188.173 10.3438C188.735 10.3438 189.12 10.5104 189.329 10.8438C189.62 11.3021 188.6 15.7083 186.266 24.0625C183.954 32.3958 181.756 39.5521 179.673 45.5312C178.027 50.2396 175.902 55.6458 173.298 61.75C167.027 76.6458 163.891 84.1667 163.891 84.3125C163.891 84.3542 164.048 84.2708 164.36 84.0625C164.673 83.8542 165.11 83.5417 165.673 83.125C166.256 82.7292 166.85 82.2917 167.454 81.8125C170.35 79.6458 174.568 77.4688 180.11 75.2812C185.673 73.0938 190.204 71.6667 193.704 71C195.537 70.6458 197.506 70.3333 199.61 70.0625C201.714 69.7708 203.527 69.5417 205.048 69.375C206.589 69.2083 207.402 69.1146 207.485 69.0938C208.006 68.9896 208.381 69.0938 208.61 69.4062C208.839 69.6979 208.87 70.0417 208.704 70.4375C208.558 70.8333 208.266 71.125 207.829 71.3125ZM217.826 59.625C219.868 57.4167 221.087 56.625 221.482 57.25C221.607 57.4583 221.67 57.8021 221.67 58.2812C221.67 58.7604 221.16 59.5938 220.139 60.7812C219.139 61.9688 218.035 63.0625 216.826 64.0625C215.639 65.0417 214.805 65.5312 214.326 65.5312C213.014 65.5312 212.16 64.9688 211.764 63.8438C211.368 62.7188 211.451 61.125 212.014 59.0625C212.68 56.7292 212.441 56.4479 211.295 58.2188C211.024 58.6354 210.712 59.1562 210.357 59.7812C208.128 63.7812 206.368 66.125 205.076 66.8125C204.451 67.1667 204.024 67.3542 203.795 67.375C203.587 67.375 203.139 67.2396 202.451 66.9688C201.722 66.6771 201.253 66.0521 201.045 65.0938C200.837 64.1146 200.837 62.5104 201.045 60.2812C201.524 54.8229 202.295 51.3125 203.357 49.75C203.837 49.0417 204.316 48.9271 204.795 49.4062C205.191 49.8021 205.128 51.2604 204.607 53.7812C204.232 55.5104 203.93 57.2292 203.701 58.9375C203.472 60.6458 203.357 61.9896 203.357 62.9688C203.357 63.9271 203.462 64.4583 203.67 64.5625C204.482 64.5625 206.41 61.8542 209.451 56.4375C210.826 54.0208 211.972 52.2708 212.889 51.1875C213.805 50.0833 214.618 49.5312 215.326 49.5312C216.118 49.5312 216.545 50.0104 216.607 50.9688C216.67 51.9271 216.368 53.4688 215.701 55.5938C214.43 59.7604 213.941 62.0625 214.232 62.5C214.503 62.8958 215.472 62.1875 217.139 60.375C217.347 60.1458 217.576 59.8958 217.826 59.625ZM239.324 55.4688C239.74 55.3646 240.022 55.4688 240.167 55.7812C240.334 56.0938 240.355 56.4583 240.23 56.875C240.126 57.2917 239.938 57.5833 239.667 57.75C239.459 57.875 239.136 57.9896 238.699 58.0938C238.261 58.1979 237.49 58.4375 236.386 58.8125C235.303 59.1875 233.99 59.7083 232.449 60.375C230.178 61.3542 228.647 62.0938 227.855 62.5938C227.084 63.0729 226.397 63.7396 225.792 64.5938C224.813 65.9688 223.813 66.875 222.792 67.3125C221.792 67.7292 220.834 67.6562 219.917 67.0938C219.334 66.7188 218.917 66.2604 218.667 65.7188C218.417 65.1771 218.334 64.6458 218.417 64.125C218.501 63.5833 218.584 63.1667 218.667 62.875C218.772 62.5833 218.876 62.3438 218.98 62.1562C219.188 61.8021 219.47 61.4583 219.824 61.125C220.178 60.7708 220.501 60.5312 220.792 60.4062C221.522 60.1146 221.886 59.6042 221.886 58.875C221.907 58.0833 222.417 56.8542 223.417 55.1875C224.438 53.5208 225.355 52.3958 226.167 51.8125C227.292 51 228.209 50.5625 228.917 50.5C229.647 50.4375 230.272 50.7083 230.792 51.3125C231.105 51.6667 231.313 51.9479 231.417 52.1562C231.542 52.3438 231.636 52.7083 231.699 53.25C231.761 53.7917 231.678 54.4375 231.449 55.1875C231.345 55.6667 231.188 56.1667 230.98 56.6875C230.792 57.2083 230.636 57.6146 230.511 57.9062C230.386 58.1979 230.324 58.3542 230.324 58.375C230.345 58.3958 231.011 58.1875 232.324 57.75C233.636 57.3125 235.042 56.8438 236.542 56.3438C238.063 55.8438 238.99 55.5521 239.324 55.4688ZM222.824 64.125C223.24 63.6875 223.49 63.3958 223.574 63.25C223.657 63.1042 223.667 62.9792 223.605 62.875C223.542 62.7708 223.324 62.625 222.949 62.4375C222.553 62.2083 222.251 62.125 222.042 62.1875C221.855 62.2292 221.657 62.4479 221.449 62.8438C221.261 63.2188 221.115 63.5938 221.011 63.9688C220.928 64.3438 220.907 64.6562 220.949 64.9062C221.011 65.1562 221.136 65.2812 221.324 65.2812C221.636 65.2812 222.136 64.8958 222.824 64.125ZM227.199 57.9062C228.178 56.2188 228.667 55.0104 228.667 54.2812C228.667 53.8021 228.615 53.5312 228.511 53.4688C228.407 53.4062 228.147 53.5 227.73 53.75C227.188 54.1042 226.48 55.0312 225.605 56.5312C224.73 58.0312 224.292 59.0833 224.292 59.6875C224.292 60.4167 224.563 60.6458 225.105 60.375C225.751 60.0625 226.449 59.2396 227.199 57.9062Z" fill="#AAAAAA"/>
</svg>

<svg width="241" height="93" fill="none" xmlns="http://www.w3.org/2000/svg"><path d="M69.219 23.531c-.167-.291.625-1.312 2.375-3.062 1.77-1.771 2.656-3.073 2.656-3.907 0-.604-.104-.968-.313-1.093-.208-.146-.802-.219-1.78-.219-1.417 0-3.397.417-5.938 1.25-2.104.667-5.563 2.156-10.375 4.469-4.813 2.312-8.927 4.458-12.344 6.437-3.854 2.23-8.781 5.417-14.781 9.563-6 4.146-9.709 6.927-11.125 8.343-.521.521-1.563 2.74-3.125 6.657a114.207 114.207 0 01-.875 2.187 16.44 16.44 0 00-.563 1.657 67.702 67.702 0 01-.406 1.312c-.042.167-.042.49 0 .969.042.458.094.74.156.843.084.105.281.365.594.782.313.416.573.718.781.906.209.167.594.51 1.156 1.031 3.48 3.209 7.698 4.99 12.657 5.344 4.979.354 10.968-.688 17.968-3.125 3.188-1.125 5.26-1.77 6.22-1.938.603-.124.968-.135 1.093-.03.146.083.177.364.094.843-.063.438-.344.833-.844 1.188-.48.333-1.406.77-2.781 1.312-7.834 3.104-14.886 4.49-21.157 4.156-6.25-.354-11.333-2.416-15.25-6.187l-2.437-2.313-1.281 3.219C6.74 71.208 4.719 77.145 3.53 81.938c-1.187 4.791-1.27 7.385-.25 7.78.209.063.386.21.531.438.146.23.22.469.22.719 0 .417-.24.698-.72.844-.458.166-.968.166-1.53 0-.542-.146-.917-.427-1.126-.844-.416-.792-.562-2.156-.437-4.094.125-1.937.5-4.073 1.125-6.406.604-2.292 1.625-5.49 3.062-9.594 1.459-4.125 2.646-7.219 3.563-9.281.666-1.646.99-3.458.968-5.438-.062-1.729.188-3.27.75-4.624.584-1.355 1.646-2.97 3.188-4.844.563-.688 1.188-1.646 1.875-2.875a27.443 27.443 0 001.719-3.657c1.041-2.645 3.01-8.291 5.906-16.937C25.292 14.479 27.167 8.708 28 5.812c.688-2.375 1.24-3.906 1.656-4.593.417-.688.896-.865 1.438-.532.52.334.427 1.782-.282 4.344-.687 2.542-2.677 8.74-5.968 18.594a1184.794 1184.794 0 00-3.938 11.938c-1.062 3.27-1.573 4.906-1.531 4.906.083 0 1.302-.865 3.656-2.594 7.063-5.188 14.75-10.083 23.063-14.688 8.312-4.625 15.041-7.74 20.187-9.343 1.938-.604 3.688-.927 5.25-.969 1.563-.063 2.771.135 3.625.594.875.458 1.459 1.083 1.75 1.875.292.791.167 1.77-.375 2.937-.541 1.146-1.469 2.365-2.781 3.657-.98.958-1.896 1.593-2.75 1.906-.854.291-1.448.187-1.781-.313zm1.966 33.313c.208.52.01 1.073-.594 1.656-.583.583-2.218 1.823-4.906 3.719-3.042 2.166-5.365 3.541-6.969 4.125-1.604.583-3.093.594-4.468.031-1.25-.5-1.907-1.688-1.97-3.563-.062-1.895.48-4.052 1.626-6.468.729-1.542 1.458-2.782 2.187-3.719.75-.958 1.636-1.604 2.657-1.938 1.062-.333 1.916-.145 2.562.563.667.688.906 1.5.719 2.438-.188 1-.886 2.156-2.094 3.468-1.208 1.292-2.25 1.938-3.125 1.938-.688 0-1.135.114-1.344.343-.208.209-.416.823-.625 1.844-.187.98-.073 1.782.344 2.407.333.416.635.645.906.687.271.02.844-.094 1.719-.344 1.188-.333 3.49-1.74 6.906-4.219a94.79 94.79 0 013.094-2.187c.75-.52 1.375-.885 1.875-1.094.5-.229.844-.302 1.031-.218.188.062.344.24.469.53zM57.779 54.5c-.75 1.083-.98 1.698-.688 1.844.209.062.573-.146 1.094-.625.792-.75 1.188-1.344 1.188-1.782 0-.562-.188-.75-.563-.562-.313.146-.656.52-1.031 1.125zm29.685-1.063c.958-.354 1.666-.416 2.125-.187.479.208.583.646.312 1.313-.291.77-1.302 1.312-3.031 1.624-1.708.313-2.865.167-3.469-.437-.27-.27-.479-.375-.625-.313-.333.126-1.26 1.157-2.781 3.094-.396.521-1.198 1.563-2.406 3.125-1.771 2.354-3.021 3.886-3.75 4.594-.709.688-1.386 1.063-2.031 1.125-.605.063-1.032.031-1.282-.094-.25-.146-.458-.437-.625-.875-.479-1.437-.291-4.219.563-8.344.583-2.979 1.291-4.5 2.125-4.562.208 0 .406.094.594.281.208.23.28.677.218 1.344-.041.646-.208 1.75-.5 3.313-.146.729-.27 1.343-.375 1.843-.083.5-.156.98-.218 1.438-.063.437-.105.791-.126 1.062-.02.25-.01.469.032.657.041.166.094.26.156.28.083.022.208-.01.375-.093.167-.104.344-.25.531-.438a56.386 56.386 0 002.844-3.563c1.02-1.374 2.99-4.01 5.906-7.905l2.907-3.875c.333-.438.562-.667.687-.688.146-.041.396.104.75.438.354.354.51.698.469 1.031-.021.333-.271 1.083-.75 2.25-.688 1.667-.927 2.615-.719 2.844.25.25.948.156 2.094-.282zm27.154 2.876c.562-.063.958.145 1.187.624.229.48.083 1.032-.437 1.657a75.37 75.37 0 01-1.375 1.468c-.5.5-1.344 1.271-2.532 2.313a41.99 41.99 0 01-3.562 2.813c-1.188.812-2.594 1.604-4.219 2.374-1.625.771-3.198 1.303-4.719 1.594-2.208.417-4.166.084-5.875-1-1.708-1.104-2.666-2.646-2.875-4.625-.208-2.083-.083-4.26.375-6.531.396-1.917.886-3.302 1.469-4.156.583-.854 1.198-1.073 1.844-.657.291.167.437.563.437 1.188 0 .604-.135.99-.406 1.156-.292.188-.625 1.542-1 4.063-.25 1.604-.375 2.74-.375 3.406.02.646.188 1.344.5 2.094.583 1.416 1.719 2.208 3.406 2.375 1.709.146 3.49-.156 5.344-.906a21.323 21.323 0 005.156-2.938 68.48 68.48 0 003.282-2.781 364.73 364.73 0 012.875-2.563c.708-.604 1.208-.927 1.5-.968zm-19.032-7.938c-.229.23-.52.344-.875.344-.354 0-.656-.115-.906-.344a1.293 1.293 0 01-.344-.906c0-.354.115-.646.344-.875.25-.25.552-.375.906-.375s.646.125.875.375c.25.229.375.52.375.875 0 .354-.125.656-.375.906zm44.591 8.563c.292-.126.573-.084.844.124.292.209.448.521.469.938.042.396-.125.865-.5 1.406-.563.75-1.646 1.782-3.25 3.094-1.583 1.313-2.656 2.094-3.219 2.344-2.208.916-4.156.958-5.844.125-.77-.375-1.437-1.084-2-2.125-.541-1.042-.927-1.98-1.156-2.813-.229-.854-.364-1.281-.406-1.281-.354 0-.969.458-1.844 1.375a20.118 20.118 0 00-2.375 3.031c-1.896 3-3.416 4.604-4.562 4.813-.563.104-.959-.167-1.188-.813-.146-.354.052-2.281.594-5.781.542-3.5 1.083-6.365 1.625-8.594.25-.937.604-1.593 1.062-1.968.459-.376.896-.365 1.313.03.292.292.125 2.188-.5 5.688-.646 3.542-.969 5.386-.969 5.532 0 .083.188-.105.563-.563.25-.292.541-.667.875-1.125a13.895 13.895 0 013.312-3.219c1.313-.916 2.334-1.323 3.063-1.218.458.062.802.27 1.031.624.229.355.479 1.084.75 2.188.708 2.833 2.01 4.25 3.906 4.25.75 0 1.604-.302 2.563-.906a15.416 15.416 0 002.531-1.969c.729-.73 1.417-1.427 2.062-2.094.667-.666 1.084-1.031 1.25-1.093zm67.652 14.374c-.25.105-1.344.25-3.281.438-1.917.167-4.657.583-8.219 1.25-3.563.646-7.271 1.573-11.125 2.781-4.646 1.459-8.896 3.354-12.75 5.688-3.834 2.354-7.115 5.01-9.844 7.969-1.396 1.541-2.312 2.458-2.75 2.75-.417.312-.844.322-1.281.03-.292-.187-.448-.395-.469-.624 0-.23.104-.615.313-1.156.812-2.021 2.552-6.105 5.218-12.25 5.834-13.667 9.75-23.105 11.75-28.313 2.021-5.208 4.021-11.125 6-17.75 1.625-5.458 2.386-8.292 2.282-8.5-.042-.104-.23.094-.563.594l-.062.062c-.438.625-.917.886-1.438.782-.5-.105-.75-.521-.75-1.25 0-.271.208-.834.625-1.688.438-.875.958-1.781 1.563-2.719 1.479-2.458 2.541-4.552 3.187-6.281.729-1.854 1.375-2.781 1.938-2.781.562 0 .947.166 1.156.5.291.458-.729 4.864-3.063 13.219-2.312 8.333-4.51 15.49-6.593 21.468-1.646 4.709-3.771 10.115-6.375 16.219-6.271 14.896-9.407 22.417-9.407 22.563 0 .041.157-.042.469-.25.313-.209.75-.521 1.313-.938a29.833 29.833 0 001.781-1.313c2.896-2.166 7.114-4.343 12.656-6.53 5.563-2.188 10.094-3.615 13.594-4.282a95.397 95.397 0 015.906-.938c2.104-.291 3.917-.52 5.438-.687 1.541-.167 2.354-.26 2.437-.281.521-.104.896 0 1.125.312.229.292.26.636.094 1.031-.146.396-.438.688-.875.876zm9.997-11.687c2.042-2.208 3.261-3 3.656-2.375.125.208.188.552.188 1.031 0 .48-.51 1.313-1.531 2.5a25.903 25.903 0 01-3.313 3.282c-1.187.979-2.021 1.468-2.5 1.468-1.312 0-2.166-.562-2.562-1.687-.396-1.125-.313-2.719.25-4.782.666-2.333.427-2.614-.719-.843-.271.416-.583.937-.938 1.562-2.229 4-3.989 6.344-5.281 7.032-.625.354-1.052.541-1.281.562-.208 0-.656-.135-1.344-.406-.729-.292-1.198-.917-1.406-1.875-.208-.98-.208-2.584 0-4.813.479-5.458 1.25-8.968 2.312-10.531.48-.708.959-.823 1.438-.344.396.396.333 1.854-.188 4.375a65.197 65.197 0 00-.906 5.157c-.229 1.708-.344 3.052-.344 4.03 0 .96.105 1.49.313 1.594.812 0 2.74-2.708 5.781-8.124 1.375-2.417 2.521-4.167 3.438-5.25.916-1.105 1.729-1.657 2.437-1.657.792 0 1.219.48 1.281 1.438.063.958-.239 2.5-.906 4.625-1.271 4.166-1.76 6.468-1.469 6.906.271.396 1.24-.313 2.907-2.125.208-.23.437-.48.687-.75zm21.498-4.156c.416-.104.698 0 .843.312.167.313.188.677.063 1.094-.104.417-.292.708-.563.875-.208.125-.531.24-.968.344-.438.104-1.209.343-2.313.718-1.083.376-2.396.896-3.937 1.563-2.271.98-3.802 1.719-4.594 2.219-.771.479-1.458 1.146-2.063 2-.979 1.375-1.979 2.281-3 2.719-1 .416-1.958.343-2.875-.22-.583-.374-1-.833-1.25-1.374-.25-.542-.333-1.073-.25-1.594.084-.542.167-.958.25-1.25.105-.292.209-.531.313-.719.208-.354.49-.698.844-1.031.354-.354.677-.594.968-.719.73-.291 1.094-.802 1.094-1.531.021-.792.531-2.02 1.531-3.688 1.021-1.666 1.938-2.791 2.75-3.374 1.125-.813 2.042-1.25 2.75-1.313.73-.063 1.355.208 1.875.813.313.354.521.635.625.843.125.188.219.552.282 1.094.062.542-.021 1.188-.25 1.938a9.499 9.499 0 01-.469 1.5c-.188.52-.344.927-.469 1.218-.125.292-.187.448-.187.469.021.02.687-.188 2-.625l4.218-1.406c1.521-.5 2.448-.792 2.782-.875zm-16.5 8.656c.416-.438.666-.73.75-.875.083-.146.093-.27.031-.375-.063-.104-.281-.25-.656-.438-.396-.229-.698-.312-.907-.25-.187.042-.385.26-.593.657-.188.375-.334.75-.438 1.125-.083.375-.104.687-.062.937.062.25.187.375.375.375.312 0 .812-.385 1.5-1.156zm4.375-6.219c.979-1.687 1.468-2.896 1.468-3.625 0-.479-.052-.75-.156-.812-.104-.063-.364.031-.781.281-.542.354-1.25 1.281-2.125 2.781-.875 1.5-1.313 2.552-1.313 3.157 0 .729.271.958.813.687.646-.313 1.344-1.135 2.094-2.469z" fill="#AAA"/></svg>
